icons/filled/square-rounded-letter-e.svg

<!--
category: Filled
version: "3.0.0-alpha.1"
-->
<svg
  xmlns="http://www.w3.org/2000/svg"
  width="24"
  height="24"
  viewBox="0 0 24 24"
  fill="none"
  stroke="currentColor"
  stroke-width="2"
  stroke-linecap="round"
  stroke-linejoin="round"
>
  <path d="M11.676 2.001l.324 -.001c7.752 0 10 2.248 10 10l-.005 .642c-.126 7.235 -2.461 9.358 -9.995 9.358l-.642 -.005c-7.13 -.125 -9.295 -2.395 -9.358 -9.67v-.325c0 -7.643 2.185 -9.936 9.676 -9.999m2.324 4.999h-4a1 1 0 0 0 -1 1v8a1 1 0 0 0 1 1h4a1 1 0 0 0 1 -1l-.007 -.117a1 1 0 0 0 -.993 -.883h-3v-2h1.5a1 1 0 0 0 .993 -.883l.007 -.117a1 1 0 0 0 -1 -1h-1.5v-2h3a1 1 0 0 0 0 -2" stroke-width="0" fill="currentColor" />
</svg>

<!--
category: Filled
version: "3.0.0-alpha.1"
-->
<svg
  xmlns="http://www.w3.org/2000/svg"
  width="24"
  height="24"
  viewBox="0 0 24 24"
  fill="none"
  stroke="currentColor"
  stroke-width="2"
  stroke-linecap="round"
  stroke-linejoin="round"
>
  <path d="M11.676 2.001 12 2c7.752 0 10 2.248 10 10l-.005.642C21.869 19.877 19.534 22 12 22l-.642-.005C4.228 21.87 2.063 19.6 2 12.325V12c0-7.643 2.185-9.936 9.676-9.999M14 7h-4a1 1 0 0 0-1 1v8a1 1 0 0 0 1 1h4a1 1 0 0 0 1-1l-.007-.117A1 1 0 0 0 14 15h-3v-2h1.5a1 1 0 0 0 .993-.883L13.5 12a1 1 0 0 0-1-1H11V9h3a1 1 0 0 0 0-2" stroke-width="0" fill="currentColor" />
</svg>
